icons/1_Primary/Grav.svg

<svg width="1024" height="1024" viewBox="0 0 1024 1024" fill="none" xmlns="http://www.w3.org/2000/svg">
<g clip-path="url(#clip0_2_2331)">
<path d="M512 1024C794.77 1024 1024 794.77 1024 512C1024 229.23 794.77 0 512 0C229.23 0 0 229.23 0 512C0 794.77 229.23 1024 512 1024Z" fill="#56595B"/>
<path d="M528.52 442.18C529.276 441.424 529.876 440.527 530.285 439.54C530.695 438.552 530.905 437.494 530.905 436.425C530.905 435.356 530.695 434.297 530.285 433.31C529.876 432.322 529.276 431.425 528.52 430.67C526.992 429.143 524.921 428.285 522.76 428.285C520.6 428.285 518.528 429.143 517 430.67C516.244 431.425 515.644 432.322 515.235 433.31C514.826 434.297 514.615 435.356 514.615 436.425C514.615 437.494 514.826 438.552 515.235 439.54C515.644 440.527 516.244 441.424 517 442.18C518.528 443.707 520.6 444.565 522.76 444.565C524.921 444.565 526.992 443.707 528.52 442.18ZM499.78 447.87C499.024 448.625 498.424 449.523 498.015 450.51C497.606 451.497 497.395 452.556 497.395 453.625C497.395 454.694 497.606 455.752 498.015 456.74C498.424 457.727 499.024 458.624 499.78 459.38C501.308 460.907 503.38 461.765 505.54 461.765C507.7 461.765 509.772 460.907 511.3 459.38C512.056 458.624 512.656 457.727 513.065 456.74C513.475 455.752 513.685 454.694 513.685 453.625C513.685 452.556 513.475 451.497 513.065 450.51C512.656 449.523 512.056 448.625 511.3 447.87C509.772 446.343 507.7 445.485 505.54 445.485C503.38 445.485 501.308 446.343 499.78 447.87ZM549.77 452.1C544.79 447.12 536.72 447.13 531.74 452.1L521.14 462.69C516.16 467.67 516.16 475.73 521.14 480.7L532.78 492.33C537.76 497.31 545.83 497.3 550.81 492.33L561.41 481.74C566.39 476.76 566.39 468.7 561.41 463.73L549.77 452.1ZM650.54 412.65C663.99 387.05 644.96 372.1 631.88 359.83C610.92 340.15 590.02 331.65 566.15 358.89C542.29 386.14 557.45 417.74 579.27 433.34C601.1 448.94 637.06 438.24 650.54 412.65ZM614.39 402.15C605.98 392.08 621.7 373.81 631.56 384.72C649.72 404.83 622.81 412.22 614.39 402.15ZM512 240.28C361.78 240.28 239.99 361.93 239.99 511.98C239.99 662.03 361.77 783.7 512 783.7C662.23 783.7 783.99 662.04 783.99 511.98C783.99 361.92 662.21 240.28 512 240.28ZM659.09 556.51C630.73 537.78 614.52 521.96 600.4 493.6C590.75 513.04 568.2 541.94 530.17 564.67C511.19 623.67 420.88 736.57 391.65 720.57C383 715.84 381.35 709.6 383.31 703.17C385.41 687.04 418.8 649.98 418.8 649.98C418.8 649.98 419.51 657.76 430.19 674.14C416.08 630.38 453.51 576.38 463.42 558C479 553.04 480.13 533.06 480.13 533.06C481.13 502.17 467.31 479.81 453.93 466.43C463.55 478.16 466.66 495.88 467.12 512.1V512.19C467.17 514.02 467.17 515.82 467.16 517.62C466.7 531.05 462.64 549.61 453.93 549.61L453.96 549.73C445.01 549.35 433.96 551.25 424.09 554.34L402.27 559.55C402.27 559.55 413.91 559.02 420.19 564.44C413.19 575.82 397.64 589.95 380.29 597.98C355.05 609.67 347.79 586.41 360.61 571.27C363.76 567.57 366.94 564.45 369.94 561.9C368.01 559.9 366.79 557.22 366.46 553.82C366.46 553.8 366.44 553.79 366.44 553.77C364.68 546.05 365.65 536.03 376.59 520.1C378.75 516.73 381.34 513.27 384.44 509.76C384.54 509.64 384.62 509.53 384.72 509.41C384.85 509.25 385 509.1 385.14 508.94L385.38 508.67C386.16 507.78 386.99 506.92 387.88 506.08C400.91 492.75 421.5 478.88 453.94 466.43C491.77 410.88 505.62 400.46 505.62 400.46C509.81 396.18 517.13 390.86 519.82 389.51C500.06 355.22 496.08 306.88 501.25 293.85C500.83 294.56 500.45 295.28 500.12 296.02C502.04 291.56 503.32 290.12 505.32 287.78C510.71 281.4 529 278.06 535.57 291.57C539.07 298.77 539.73 308.1 539.61 315.09C525.13 314.34 511.99 330.85 511.99 330.85C511.99 330.85 523.98 325.2 538.88 325.1C538.88 325.1 542.85 328.55 547.81 335.03C541.12 347.58 530.12 374.17 538.09 402.08C539.41 407.58 541.41 412.31 543.88 416.33C543.97 416.5 544.05 416.68 544.15 416.86C544.35 417.12 544.53 417.34 544.71 417.58C557.88 437.39 582.02 439.7 582.02 439.7C570.66 434.04 561.4 425.02 555.37 414.08C552.24 408.23 550.32 403.29 549.14 399.4C542.75 374.74 552.16 360.34 557.54 350.69C569.93 331.49 592.51 319.86 616.78 322.63C650.84 326.51 675.3 357.24 671.41 391.25C669.04 412.03 656.63 429.22 639.58 438.57C643.68 449.66 639.3 463.1 639.3 463.1C649.63 476.08 650.08 483.56 649.72 490.5C636.6 488.29 623.85 497.14 623.85 497.14C623.85 497.14 649.17 491.1 663.88 504.21C673.45 514.49 679.83 523.78 683.63 530.64C689.08 540.42 714.36 541.12 711.48 558.72C708.6 576.29 689.32 576.46 659.09 556.53V556.51Z" fill="white"/>
</g>
<defs>
<clipPath id="clip0_2_2331">
<rect width="1024" height="1024" fill="white"/>
</clipPath>
</defs>
</svg>

<svg xmlns="http://www.w3.org/2000/svg" viewBox="0 0 1024 1024">
   <circle cx="512" cy="512" r="512" style="fill:#221e1f"/>
   <path d="M528.52 442.18a8.136 8.136 0 0 0 0-11.51 8.148 8.148 0 0 0-11.52 0 8.136 8.136 0 0 0 0 11.51 8.148 8.148 0 0 0 11.52 0Zm-28.74 5.69a8.136 8.136 0 0 0 0 11.51 8.148 8.148 0 0 0 11.52 0 8.136 8.136 0 0 0 0-11.51 8.148 8.148 0 0 0-11.52 0Zm49.99 4.23c-4.98-4.98-13.05-4.97-18.03 0l-10.6 10.59c-4.98 4.98-4.98 13.04 0 18.01l11.64 11.63c4.98 4.98 13.05 4.97 18.03 0l10.6-10.59c4.98-4.98 4.98-13.04 0-18.01l-11.64-11.63Zm100.77-39.45c13.45-25.6-5.58-40.55-18.66-52.82-20.96-19.68-41.86-28.18-65.73-.94-23.86 27.25-8.7 58.85 13.12 74.45 21.83 15.6 57.79 4.9 71.27-20.69Zm-36.15-10.5c-8.41-10.07 7.31-28.34 17.17-17.43 18.16 20.11-8.75 27.5-17.17 17.43ZM512 240.28c-150.22 0-272.01 121.65-272.01 271.7S361.77 783.7 512 783.7s271.99-121.66 271.99-271.72S662.21 240.28 512 240.28Zm147.09 316.23c-28.36-18.73-44.57-34.55-58.69-62.91-9.65 19.44-32.2 48.34-70.23 71.07-18.98 59-109.29 171.9-138.52 155.9-8.65-4.73-10.3-10.97-8.34-17.4 2.1-16.13 35.49-53.19 35.49-53.19s.71 7.78 11.39 24.16c-14.11-43.76 23.32-97.76 33.23-116.14 15.58-4.96 16.71-24.94 16.71-24.94 1-30.89-12.82-53.25-26.2-66.63 9.62 11.73 12.73 29.45 13.19 45.67v.09c.05 1.83.05 3.63.04 5.43-.46 13.43-4.52 31.99-13.23 31.99l.03.12c-8.95-.38-20 1.52-29.87 4.61l-21.82 5.21s11.64-.53 17.92 4.89c-7 11.38-22.55 25.51-39.9 33.54-25.24 11.69-32.5-11.57-19.68-26.71 3.15-3.7 6.33-6.82 9.33-9.37-1.93-2-3.15-4.68-3.48-8.08 0-.02-.02-.03-.02-.05-1.76-7.72-.79-17.74 10.15-33.67 2.16-3.37 4.75-6.83 7.85-10.34.1-.12.18-.23.28-.35.13-.16.28-.31.42-.47l.24-.27c.78-.89 1.61-1.75 2.5-2.59 13.03-13.33 33.62-27.2 66.06-39.65 37.83-55.55 51.68-65.97 51.68-65.97 4.19-4.28 11.51-9.6 14.2-10.95-19.76-34.29-23.74-82.63-18.57-95.66-.42.71-.8 1.43-1.13 2.17 1.92-4.46 3.2-5.9 5.2-8.24 5.39-6.38 23.68-9.72 30.25 3.79 3.5 7.2 4.16 16.53 4.04 23.52-14.48-.75-27.62 15.76-27.62 15.76s11.99-5.65 26.89-5.75c0 0 3.97 3.45 8.93 9.93-6.69 12.55-17.69 39.14-9.72 67.05 1.32 5.5 3.32 10.23 5.79 14.25.09.17.17.35.27.53.2.26.38.48.56.72 13.17 19.81 37.31 22.12 37.31 22.12-11.36-5.66-20.62-14.68-26.65-25.62-3.13-5.85-5.05-10.79-6.23-14.68-6.39-24.66 3.02-39.06 8.4-48.71 12.39-19.2 34.97-30.83 59.24-28.06 34.06 3.88 58.52 34.61 54.63 68.62-2.37 20.78-14.78 37.97-31.83 47.32 4.1 11.09-.28 24.53-.28 24.53 10.33 12.98 10.78 20.46 10.42 27.4-13.12-2.21-25.87 6.64-25.87 6.64s25.32-6.04 40.03 7.07c9.57 10.28 15.95 19.57 19.75 26.43 5.45 9.78 30.73 10.48 27.85 28.08-2.88 17.57-22.16 17.74-52.39-2.19Z" style="fill:#fff"/>
</svg>
